synths/sMKR.svg

<svg width="42" height="42" viewBox="0 0 42 42" fill="none" xmlns="http://www.w3.org/2000/svg">
<g clip-path="url(#clip0_7277_57904)">
<mask id="mask0_7277_57904" style="mask-type:alpha" maskUnits="userSpaceOnUse" x="0" y="0" width="42" height="42">
<circle cx="21" cy="21" r="21" fill="url(#paint0_linear_7277_57904)"/>
</mask>
<g mask="url(#mask0_7277_57904)">
<circle cx="21" cy="21" r="21" fill="#34EDB3"/>
<circle cx="21" cy="21" r="18.2" fill="white"/>
</g>
<circle cx="21" cy="21" r="16.1" fill="#06061B"/>
<g clip-path="url(#clip1_7277_57904)">
<path d="M21 37.2676C29.9844 37.2676 37.2676 29.9844 37.2676 21C37.2676 12.0157 29.9844 4.73242 21 4.73242C12.0157 4.73242 4.73242 12.0157 4.73242 21C4.73242 29.9844 12.0157 37.2676 21 37.2676Z" fill="#1ABC9C"/>
<path d="M12.7015 16.9901V27.6088H10.8328V13.3746L20.7031 20.5192V27.6088H18.8344V21.4301L12.7015 16.9901ZM23.1656 21.4301V27.6088H21.2969V20.5192L31.1673 13.3746V27.6088H29.2985V16.9901L23.1656 21.4301Z" fill="white"/>
</g>
</g>
<defs>
<linearGradient id="paint0_linear_7277_57904" x1="21" y1="0" x2="21" y2="61.4091" gradientUnits="userSpaceOnUse">
<stop stop-color="#08021E"/>
<stop offset="1" stop-color="#1F0777"/>
</linearGradient>
<clipPath id="clip0_7277_57904">
<rect width="42" height="42" fill="white"/>
</clipPath>
<clipPath id="clip1_7277_57904">
<rect width="32.5352" height="32.5352" fill="white" transform="translate(4.73242 4.73242)"/>
</clipPath>
</defs>
</svg>

<svg xmlns="http://www.w3.org/2000/svg" width="42" height="42" fill="none"><g clip-path="url(#a)"><mask id="c" width="42" height="42" x="0" y="0" maskUnits="userSpaceOnUse" style="mask-type:alpha"><circle cx="21" cy="21" r="21" fill="url(#b)"/></mask><g mask="url(#c)"><circle cx="21" cy="21" r="21" fill="#34EDB3"/><circle cx="21" cy="21" r="18.2" fill="#fff"/></g><circle cx="21" cy="21" r="16.1" fill="#06061B"/><g clip-path="url(#d)"><path fill="#1ABC9C" d="M21 37.268c8.984 0 16.268-7.284 16.268-16.268 0-8.984-7.284-16.268-16.268-16.268-8.984 0-16.268 7.284-16.268 16.268 0 8.984 7.284 16.268 16.268 16.268Z"/><path fill="#fff" d="M12.701 16.99V27.61h-1.868V13.375l9.87 7.144v7.09h-1.869V21.43l-6.133-4.44Zm10.465 4.44v6.179h-1.87v-7.09l9.871-7.144v14.234h-1.869V16.99l-6.132 4.44Z"/></g></g><defs><clipPath id="a"><path fill="#fff" d="M0 0h42v42H0z"/></clipPath><clipPath id="d"><path fill="#fff" d="M4.732 4.732h32.535v32.535H4.732z"/></clipPath><linearGradient id="b" x1="21" x2="21" y1="0" y2="61.409" gradientUnits="userSpaceOnUse"><stop stop-color="#08021E"/><stop offset="1" stop-color="#1F0777"/></linearGradient></defs></svg>
